X:1
T:Awake, Awake! O Heart of Mine!
T:John Robson Sweney
T:Awake, Awake! O Heart of Mine!
T:Public Domain
T:Public Domain
T:Public Domain
C:John Robson Sweney
Z:Public Domain
%%score ( 1 2 ) ( 3 4 )
L:1/8
M:9/8
K:Eb
V:1 treble 
V:2 treble 
V:3 bass 
V:4 bass 
V:1
 E [EG]2 [FA] | [GB]3- [GB]2 [GB] [^Fc]2 [Fe] | [GB]6 [EB]3 | [DB]3- [DB]2 [DF] [EG]2 [FA] | %4
w: 1.~A- wake, a-|O * heart of mine!|Sing praise|to * God a- bove;|
w: 2.~Re- deemed by|my * Lord and King,|Who saves|me * day by day;|
w: 3.~O love, un-|ing, * love sub- lime!|Not all|the * hosts a- bove|
 [EG]3- [EG]2 E [EG]2 [FA] | [GB]3- [GB]2 [GB] [^Fc]2 [Fe] | [GB]3- [GB]3 [Ge]3 | %7
w: Take * up the song|end- * less years, And|sing * re-|
w: My * life and all|ran- * somed powers Could|ne’er * His|
w: Can * reach the height|sound * the depth Of|God’s * e-|
 [Fd]3- [Fd]2 F [E=A]2 [Ec] | [DB]3- [DB]3 [DB]3 | [DB]2 [DA] [DA]3- [DA]2 [GB] | %10
w: deem- * ing love! Re-|deemed * by|Him Who bore * my|
w: love * re- pay. And|yet * His|mer- cy con- * de-|
w: ter- * nal love. This|wond- * rous|love en- folds * the|
 [FA]2 [EG] [EG]3 [EG]3 | [E_G]3- [EG]2 [EG] [EF]2 E | (D2 E) [FB]2 E [EG]2 [FA] | %13
w: sins, When on the|cross * He died; Re-|and * pur- chased with His|
w: scends My hum- ble|gift * to own; And|the * rich- es of His|
w: world, It fills the|realms * a- bove; ’Tis|less * as e- ter- ni-|
 [GB]3- [GB]2 [GB] [^Fc]2 [Fe] | [GB]3- [GB]2 [EB] [Ec]2 [EB] | [D-F]3 [DG]3 [DF]3 | E3- _E2 || %17
w: deemed * and sanc- ti-|fied. * * * *|||
w: brings * me near His|throne. * A- wake, a-|wake, * O|heart *|
w: praise * the God of|love! * * * *|||
[M:2/8]"^Refrain" B(BG)e | (z2 A A2 A [Ad]2) [Ac] [GB]2 [FA] | %19
w: ||
w: Sing praise, * sing|* * * * bove; Take up|
w: ||
 [EG]3- [EG]3- [EG]2 [EG] [FA]2 [GB] | [Ac]3- [Ac]3- [Ac]2 [ce] [Bd]2 [Ac] | %21
w: ||
w: song * * of end- less|years, * * And sing re-|
w: ||
 [GB]3- [GB]3- [GB]2 [GB] [^F=A]2 [GB] | [Af]3- [Af]3- [Af]2 [FA] [=EG]2 [FA] | %23
w: ||
w: deem- * * ing love! *||
w: ||
 [GB]3- [GB]3- [GB]3 (Bcd) | [Ge]3- [Ge]2 [EG] ([DB]3- BA)[DF] | (z2 B, C2 C [B,E]4) |] %26
w: |||
w: |||
w: |||
V:2
 E x3 | x9 | x9 | x9 | x5 E x3 | x9 | x9 | x9 | x9 | x9 | x9 | x8 E | B3- E x5 | x9 | x9 | x9 | %16
w: wake,||||of|||||||deemed|blood, Re-||||
w: Him,||||its|||||||through|grace, He||||
w: chang-||||or|||||||bound-|ty; Oh,||||
 E3 _E2 ||[M:2/8] BBGe | (d3- d3-) x6 | x12 | x12 | x12 | x12 | x9 A3 | x9 D2 x | E3- E3- x4 |] %26
w: ||||||||||
w: of mine!|praise to God a-|the *||||||||
w: ||||||||||
V:3
 [E,G,] [E,B,]2 [E,B,] | [E,E]3- [E,E]2 [E,B,] [E,=A,]2 [E,C] | [E,E]6 [E,G,]3 | %3
 [B,,F,]3- [B,,F,]2 [B,,B,] [B,,B,]2 [B,,B,] | [E,B,]3- [E,B,]2 [E,G,] [E,B,]2 [E,B,] | %5
 [E,E]3- [E,E]2 [E,B,] [E,=A,]2 [E,C] | [E,E]3- [E,E]3 [E,B,]3 | [F,B,]3- [F,B,]2 [F,D] [F,C]2 F, | %8
 [B,,F,]3- [B,,F,]3 [B,,F,]3 | [B,,F,]2 [B,,F,] [B,,F,]3- [B,,F,]2 [B,,B,] | %10
 [E,B,]2 [E,B,] [E,B,]3 [E,B,]3 | [E,B,]3- [E,B,]2 [E,B,] [E,A,]2 [E,_G,] | %12
 F,2 G, [B,,A,]2 [E,G,] [E,B,]2 [E,B,] | [E,E]3- [E,E]2 [E,B,] [E,=A,]2 [E,C] | %14
 [E,E]3- [E,E]2 [E,G,] [E,A,]2 [E,G,] | [B,,-A,]3 [B,,B,]3 [B,,A,]3 | [E,G,]3- [E,G,]2 || %17
[M:2/8] z4 | z2 [B,,F,] [B,,F,]2 [B,,F,] [B,,F,]2 z4 | z2 [E,B,] [E,B,]2 [E,B,] [E,B,]2 z4 | %20
 z2 [A,E] [A,E]2 [A,E] [A,E]2 [A,E] [A,E]2 [A,E] | [E,E]2 [E,E] [E,E]2 [E,E] [E,E]2 z4 | %22
 z2 [B,D] [B,D]2 [B,D] [B,D]2 z4 | z2 [E,E] [E,E]2 [E,E] [E,E]3 B,3 | %24
 [E,B,]2 [E,B,] [E,B,]2 [E,B,] ([B,,-B,]3 [B,,F,]2) [B,,A,] | %25
 ([E,G,]2 [E,G,] [E,A,]2 [E,A,] [E,G,]4) |] %26
V:4
 x4 | x9 | x9 | x9 | x9 | x9 | x9 | x9 | x9 | x9 | x9 | x9 | B,,3- x6 | x9 | x9 | x9 | x5 || %17
[M:2/8] x4 | x12 | x12 | x12 | x12 | x12 | x9 B,3 | x12 | x10 |] %26

